X:18
T:Bonnie Kate (first version) (reel) 
B:CRE1.175 (Cait Bhoidheach - an chead leagan)
F:file ID: cre.1/018bonny_k1
M:C
Q:180
R:reel
K:D
dB|AFA2 (3Bcd AF|DFAF GFEF|DFAF DGBd|cABc dcdB|
AFA2 (3Bcd AF|DFAF GFEF|DFAF DGBd|cABc defg||
a2fa Adef|{a}gfed cdef|g2gf gbag|fdec defg|
a2fa Adef|gfed cdef|g2gf g2ga|fdec d3B|]

